X: 4
T: The Irish Rover
R: barndance
M: 4/4
L: 1/8
K: Gmaj
d2 |G2 B>c d2 ga | b2 af g2 fe | d2 ed B2 cB | A4 dc BA |
G2 Bc d2 g>a | b2 a>f g2 fe | d2 fg a2 fd | g4- g2 ||
ga |b2 ga b2 gb | a2 g>e d2 ef | g>f ga b2 gb | a>g fe d>c BA |
G2 Bc d2 g>a | b2 a>f g2 fe | d>d fg a2 fd | g4- g2 |]


Tune 4786	Setting 4786

